material/.icons/material/format-header-3.svg

<svg xmlns="http://www.w3.org/2000/svg" viewBox="0 0 24 24"><path d="M3 4h2v6h4V4h2v14H9v-6H5v6H3V4m12 0h4a2 2 0 012 2v10a2 2 0 01-2 2h-4a2 2 0 01-2-2v-1h2v1h4v-4h-4v-2h4V6h-4v1h-2V6a2 2 0 012-2z"/></svg>

<?xml version="1.0" encoding="UTF-8"?><!DOCTYPE svg PUBLIC "-//W3C//DTD SVG 1.1//EN" "http://www.w3.org/Graphics/SVG/1.1/DTD/svg11.dtd"><svg xmlns="http://www.w3.org/2000/svg" xmlns:xlink="http://www.w3.org/1999/xlink" version="1.1" id="mdi-format-header-3" width="24" height="24" viewBox="0 0 24 24"><path d="M3,4H5V10H9V4H11V18H9V12H5V18H3V4M15,4H19A2,2 0 0,1 21,6V16A2,2 0 0,1 19,18H15A2,2 0 0,1 13,16V15H15V16H19V12H15V10H19V6H15V7H13V6A2,2 0 0,1 15,4Z" /></svg>
